X: 109
T: Govan Billiard Hall Song
M:4/4
R:march
L:1/8
Z:added by Alf warnock alf0@rogers.com - www.alfwarnock.info/alfs
K:C
G|"C"G/2C3/2CC G/2C3/2CC|"F"DCB,A, "G7"G,2G3/2G/2|"C"GCCC CCB,C|"G7"D7G|
"C"G/2C/2CCC GCCC|"F"DCB,A, "G7"G,2GG|"Dm"GDDE "G7"FFED|"C"C6G2||
P:Chorus
"F"A3/2A/2AG F2A3/2A/2|"C"AGGE G2EF|GCCC CCB,C|"G7"D6G3/2G/2|
"C"GCCC C2CC|"F"DCB,A, "G7"G,2GG|GGDE FFED|"C"C8|]

